X: 12
T: Willie Coleman's
C: Willie Coleman
Z: chansherly212
S: https://thesession.org/tunes/476#setting54008
R: jig
M: 6/8
L: 1/8
K: Gmaj
|:"G"B2G AGE|"G"GED GBd|"G"edB dgb|"D"age dBA|
"G"B2G AGE|"G"GED GBd|"C"edB "D"dBA|"D"AGF "G"G3:|
|:"G"g2g edB|"G"dgb age|"G"g2g edB|"G"GBd "C"e2d|
"G"g2g edB|"G"dgb age|"G"dBd gdB|"D"AGF "G"G3:|

%-------------------- TUNE SEPARATOR --------------------%

